app/dist/common/images/qube-holdings-limited.svg

<svg height="18" viewBox="0 0 18 18" width="18" xmlns="http://www.w3.org/2000/svg"><path d="m0 0h18v18h-18z" fill="#72777a"/><path d="m6 5h6c1.09 0 2 .97 2 2.14v3.86c0 1.16-.91 2-2 2h-1v.45c0 .29-.25.55-.52.55h-1.09c-.22 0-.39-.2-.39-.44v-2.03c0-.29.21-.53.48-.53h2.52v-4h-6v4h1.03c.27 0 .5.23.5.52v1.17c0 .24-.18.31-.4.31h-1.15c-1.08 0-1.98-.85-1.98-2.01v-3.99c.14-1.17.95-2 2-2z" fill="#ffe40c"/></svg>

<!-- by TradingView --><svg xmlns="http://www.w3.org/2000/svg" width="18" height="18" viewBox="0 0 18 18"><path fill="#72777A" d="M0 0h18v18H0z"/><path d="M6 5h6c1.09 0 2 .97 2 2.14V11c0 1.16-.91 2-2 2h-1v.45c0 .29-.25.55-.52.55H9.39c-.22 0-.39-.2-.39-.44v-2.03c0-.29.21-.53.48-.53H12V7H6v4h1.03c.27 0 .5.23.5.52v1.17c0 .24-.18.31-.4.31H5.98C4.9 13 4 12.15 4 10.99V7c.14-1.17.95-2 2-2Z" fill="#FFE40C"/></svg>
